src/assets/icons/sax/IconLink.svg

<svg width="20" height="20" viewBox="0 0 24 24" fill="none" xmlns="http://www.w3.org/2000/svg">
<path d="M19.07 14.2401C18.78 14.5301 18.32 14.5301 18.04 14.2401C17.75 13.9501 17.75 13.4901 18.04 13.2101C20.04 11.2101 20.04 7.9601 18.04 5.9701C16.04 3.9801 12.79 3.9701 10.8 5.9701C8.81003 7.9701 8.80003 11.2201 10.8 13.2101C11.09 13.5001 11.09 13.9601 10.8 14.2401C10.51 14.5301 10.05 14.5301 9.77003 14.2401C7.20003 11.6701 7.20003 7.4901 9.77003 4.9301C12.34 2.3701 16.52 2.3601 19.08 4.9301C21.64 7.5001 21.64 11.6701 19.07 14.2401Z" fill="currentColor"/>
<path d="M4.92997 9.75998C5.21997 9.46998 5.67997 9.46998 5.95997 9.75998C6.24997 10.05 6.24997 10.51 5.95997 10.79C3.95997 12.79 3.95997 16.04 5.95997 18.03C7.95997 20.02 11.21 20.03 13.2 18.03C15.19 16.03 15.2 12.78 13.2 10.79C12.91 10.5 12.91 10.04 13.2 9.75998C13.49 9.46998 13.95 9.46998 14.23 9.75998C16.8 12.33 16.8 16.51 14.23 19.07C11.66 21.63 7.47997 21.64 4.91997 19.07C2.35997 16.5 2.35997 12.33 4.92997 9.75998Z" fill="currentColor"/>
</svg>

<svg xmlns="http://www.w3.org/2000/svg" width="20" height="20" fill="none" viewBox="0 0 24 24">
  <path fill="currentcolor" d="M19.07 14.24a.7.7 0 0 1-1.03 0 .7.7 0 0 1 0-1.03 5.12 5.12 0 1 0-7.24 0c.29.29.29.75 0 1.03a.7.7 0 0 1-1.03 0 6.58 6.58 0 1 1 9.3 0"/>
  <path fill="currentcolor" d="M4.93 9.76a.7.7 0 0 1 1.03 0c.29.29.29.75 0 1.03a5.12 5.12 0 1 0 7.24 0 .7.7 0 0 1 0-1.03.7.7 0 0 1 1.03 0 6.58 6.58 0 1 1-9.3 0"/>
</svg>
